source/assets/images/flags/Philippines.svg

<svg viewBox="0 0 3750 1875" xmlns="http://www.w3.org/2000/svg" fill-rule="evenodd" clip-rule="evenodd" stroke-linejoin="round" stroke-miterlimit="1.414"><path fill="#1D429B" fill-rule="nonzero" d="M0 0h3750.003v1875H0z"/><path fill="#CF2028" fill-rule="nonzero" d="M0 937.5h3750.003V1875H0z"/><path d="M0 0v1875l1623.8-937.5L0 0z" fill="#fff" fill-rule="nonzero"/><path d="M595.598 1124.61l12.085 184.37-24.35 24.35-24.35-24.35 12.086-184.37c-4.11-.27-8.182-.67-12.214-1.19l-22.15 168.25-19.87-19.87 29.91-150.37c-24.603-4.86-47.474-14.54-67.593-28.01L393.97 1220.9h-28.1l103.314-134.64c-3.245-2.49-6.407-5.09-9.48-7.79L337.87 1217.4h-34.433v-34.44l138.924-121.83c-2.696-3.07-5.294-6.24-7.788-9.48L299.93 1154.96v-28.1l127.486-85.18c-13.47-20.12-23.148-42.99-28.015-67.59L249.04 1004l-19.87-19.872 168.25-22.15c-.527-4.032-.925-8.104-1.19-12.213L211.85 961.85 187.5 937.5l24.35-24.35 184.378 12.087c.265-4.11.663-8.18 1.19-12.213l-168.25-22.15 19.87-19.87L399.4 900.91c4.868-24.6 14.546-47.473 28.016-67.59L299.93 748.137v-28.1l134.642 103.314c2.494-3.246 5.093-6.407 7.79-9.48L303.436 692.038v-34.433h34.433L459.704 796.53c3.073-2.698 6.235-5.296 9.48-7.79L365.87 654.097h28.1l85.183 127.487c20.12-13.47 42.99-23.15 67.592-28.015l-29.91-150.366 19.87-19.87 22.15 168.25c4.033-.525 8.106-.923 12.214-1.188l-12.087-184.38 24.35-24.35 24.35 24.35-12.085 184.38c4.108.265 8.18.663 12.213 1.188l22.15-168.25 19.872 19.87-29.91 150.365c24.603 4.865 47.474 14.544 67.593 28.014l85.183-127.487h28.1L697.483 788.74c3.246 2.494 6.408 5.092 9.48 7.79l121.834-138.925h34.434v34.433L724.307 813.872c2.697 3.073 5.295 6.234 7.79 9.48l134.642-103.314v28.1L739.25 833.32c13.47 20.12 23.15 42.99 28.016 67.592l150.364-29.91 19.87 19.872-168.25 22.15c.527 4.032.924 8.104 1.19 12.213l184.378-12.086 24.35 24.35-24.35 24.35-184.38-12.085c-.264 4.11-.66 8.18-1.187 12.213l168.25 22.15L917.63 1004l-150.364-29.91c-4.866 24.6-14.545 47.47-28.015 67.59l127.488 85.18v28.1l-134.643-103.31c-2.494 3.24-5.092 6.41-7.79 9.48l138.926 121.83v34.44h-34.433l-121.833-138.93c-3.073 2.7-6.235 5.3-9.48 7.79l103.314 134.64h-28.1l-85.183-127.48c-20.12 13.47-42.99 23.15-67.593 28.01l29.91 150.37-19.87 19.87-22.15-168.25c-4.033.52-8.106.92-12.214 1.19zM1436.3 937.5l-70.46 24.493-1.52 74.578-45.06-59.44-71.4 21.6 42.6-61.23-42.6-61.228 71.4 21.6 45.06-59.438 1.52 74.575 70.46 24.49zM93.75 1712.62l14.02-73.26-63.828-38.61 74.012-9.31 16.992-72.63 31.72 67.52 74.33-6.29-54.408 51.03 28.945 68.75-65.345-35.97-56.438 48.77zM93.75 162.38l56.438 48.77 65.345-35.97-28.945 68.75 54.408 51.03-74.33-6.285-31.72 67.513-16.992-72.633-74.012-9.31 63.83-38.603L93.75 162.38z" fill="#FBD113"/></svg>

<?xml version="1.0" standalone="no"?>
<!DOCTYPE svg PUBLIC "-//W3C//DTD SVG 1.1//EN" "http://www.w3.org/Graphics/SVG/1.1/DTD/svg11.dtd">
<svg width="100%" height="100%" viewBox="0 0 3750 1875" version="1.1" xmlns="http://www.w3.org/2000/svg" xmlns:xlink="http://www.w3.org/1999/xlink" xml:space="preserve" style="fill-rule:evenodd;clip-rule:evenodd;stroke-linejoin:round;stroke-miterlimit:1.41421;">
    <g id="Layer 1" transform="matrix(4.16667,0,0,4.16667,0,0)">
        <rect x="0" y="0" width="900" height="450" style="fill:rgb(29,66,155);fill-rule:nonzero;"/>
        <rect x="0" y="225" width="900" height="225" style="fill:rgb(207,32,40);fill-rule:nonzero;"/>
        <path d="M0,0L0,450L389.712,225L0,0Z" style="fill:white;fill-rule:nonzero;"/>
        <g transform="matrix(0.24,0,0,0.24,0,0)">
            <path d="M595.598,1124.61L607.683,1308.98L583.333,1333.33L558.983,1308.98L571.069,1124.61C566.96,1124.34 562.888,1123.94 558.856,1123.42L536.706,1291.67L516.835,1271.8L546.745,1121.43C522.143,1116.57 499.272,1106.89 479.153,1093.42L393.97,1220.9L365.87,1220.9L469.184,1086.26C465.939,1083.77 462.777,1081.17 459.704,1078.47L337.87,1217.4L303.437,1217.4L303.437,1182.96L442.361,1061.13C439.664,1058.06 437.066,1054.89 434.572,1051.65L299.93,1154.96L299.93,1126.86L427.416,1041.68C413.946,1021.56 404.268,998.69 399.401,974.089L249.038,1004L229.167,984.127L397.417,961.977C396.891,957.945 396.493,953.873 396.228,949.764L211.85,961.85L187.5,937.5L211.85,913.15L396.228,925.236C396.493,921.127 396.891,917.055 397.417,913.023L229.167,890.873L249.038,871.002L399.401,900.911C404.268,876.31 413.946,853.438 427.416,833.32L299.93,748.137L299.93,720.037L434.572,823.351C437.066,820.105 439.665,816.944 442.361,813.871L303.437,692.037L303.437,657.604L337.87,657.604L459.704,796.528C462.777,793.831 465.939,791.233 469.184,788.739L365.87,654.096L393.97,654.096L479.153,781.583C499.272,768.113 522.143,758.434 546.745,753.568L516.835,603.204L536.706,583.333L558.856,751.583C562.888,751.058 566.961,750.66 571.069,750.395L558.983,566.017L583.333,541.667L607.683,566.017L595.598,750.395C599.706,750.66 603.779,751.058 607.811,751.583L629.96,583.333L649.831,603.204L619.922,753.568C644.524,758.434 667.395,768.113 687.514,781.583L772.697,654.096L800.797,654.096L697.482,788.739C700.728,791.233 703.89,793.831 706.963,796.528L828.796,657.604L863.23,657.604L863.23,692.037L724.305,813.871C727.002,816.944 729.6,820.105 732.094,823.351L866.737,720.037L866.737,748.137L739.25,833.32C752.72,853.439 762.399,876.31 767.265,900.911L917.629,871.002L937.5,890.873L769.25,913.023C769.776,917.055 770.173,921.127 770.438,925.236L954.817,913.15L979.167,937.5L954.817,961.85L770.438,949.764C770.173,953.873 769.776,957.945 769.25,961.977L937.5,984.127L917.629,1004L767.265,974.089C762.399,998.69 752.72,1021.56 739.25,1041.68L866.737,1126.86L866.737,1154.96L732.094,1051.65C729.6,1054.89 727.002,1058.06 724.305,1061.13L863.23,1182.96L863.23,1217.4L828.796,1217.4L706.963,1078.47C703.89,1081.17 700.728,1083.77 697.482,1086.26L800.797,1220.9L772.697,1220.9L687.514,1093.42C667.395,1106.89 644.524,1116.57 619.922,1121.43L649.831,1271.8L629.96,1291.67L607.811,1123.42C603.779,1123.94 599.706,1124.34 595.598,1124.61Z" style="fill:rgb(251,209,19);"/>
        </g>
        <g transform="matrix(0.24,0,0,0.24,0,0)">
            <path d="M1436.3,937.5L1365.84,961.992L1364.32,1036.57L1319.26,977.129L1247.86,998.729L1290.46,937.5L1247.86,876.271L1319.26,897.871L1364.32,838.433L1365.84,913.008L1436.3,937.5Z" style="fill:rgb(251,209,19);"/>
        </g>
        <g transform="matrix(0.24,0,0,0.24,0,0)">
            <path d="M93.75,1712.62L107.771,1639.36L43.942,1600.75L117.954,1591.44L134.946,1518.81L166.667,1586.33L240.996,1580.04L186.588,1631.07L215.533,1699.82L150.188,1663.85L93.75,1712.62Z" style="fill:rgb(251,209,19);"/>
        </g>
        <g transform="matrix(0.24,0,0,0.24,0,0)">
            <path d="M93.75,162.38L150.188,211.15L215.533,175.18L186.588,243.93L240.996,294.959L166.667,288.675L134.946,356.188L117.954,283.555L43.942,274.246L107.771,235.642L93.75,162.38Z" style="fill:rgb(251,209,19);"/>
        </g>
    </g>
</svg>
